outputs/icons/device/cellular_signal_sharp.svg

<svg xmlns="http://www.w3.org/2000/svg" width="1200" height="1200" fill="none"><g clip-path="url(#a)"><path fill="#000" d="M850 200h150v800H850zM250 700h150v300H250zm300-250h150v550H550z"/></g><defs><clipPath id="a"><path fill="#fff" d="M0 0h1200v1200H0z"/></clipPath></defs></svg>

<svg width="1200" height="1200" viewBox="0 0 1200 1200" fill="none" xmlns="http://www.w3.org/2000/svg"><g clip-path="url(#clip0_133_45)"><path d="M850 200H1000V1000H850V200ZM250 700H400V1000H250V700ZM550 450H700V1000H550V450Z" fill="#1D1E23"/></g><defs><clipPath id="clip0_133_45"><path width="24" fill="white" d="M0 0H1200V1200H0V0z"/></clipPath></defs></svg>
